X:5027
T:Elsie Marley
R:Jig
C:Trad.
O:England; Durham
Z:Paul Hardy's Session Tunebook 2022 (see www.paulhardy.net). Creative Commons cc by-nc-sa licenced.
M:6/8
L:1/8
Q:3/8=100
K:Dmix
"D"FGF D2D|D2d dAG|FGF D2D|"C"E2c cGE|"D"FGF DFA|ded dAF|"C"GeG "D"FdF|"C"E2c cGE:|
|:"D"F2G A2A|AB^c d2A|F2G AGF|"C"E2F GFE|"D"F2G A2A|B^cd AGF|"C"GeG "D"FdF|"C"E2c cGE:|"D""_Out"D6|]

